X: 31013
T: Packie Russell's
R: jig
M: 6/8
K: Gmajor
a|gdB c2 e|dBG A3|G3 GBd|g3 b2 a|
gdB c2 e|dBG A3|G3 B2 A|G3 G:|
d|gdd Bdd|gdd Bdd|gdd dBd|g3 g2 d|
gdd Bdd|gdc B2 G|A3 B2 A|G3 G|
gdd Bdd|gdd Bdd|gdd dBd|g3 b2 a|
g3 f3|e3 d3|(4efge dBd|g3 b|

